X:538
T: IM ARM DER LIEBE
N: F1045
O: Europa, Mitteleuropa, Deutschland
R: Trost - Lied
M: 6/8
L: 1/16
K: F
F2 | A3BG2F3GA2 | B3cA2G4
B2 | A2c2f2d2B2G2 | F6E4
F2 | A3BG2F3GA2 | B3cA2G4
B2 | A2c2f2d2B2G2 | F4E2F4
G2 | G4A2B4G2 | A4B2c4
f2 | f6A6 | G6d6 |
c6E6 | F6z4

@@@ Tune index: 5969
